X:1
T:Quella cetra ah pur tu sei
T:Quella cetra ah pur tu sei
T:Ludvig van Beethoven
C:Ludvig van Beethoven
%%score [ 1 2 3 4 ]
L:1/8
Q:1/4=60
M:2/4
K:F
V:1 treble nm="Soprano" snm="S."
V:2 treble nm="Alto" snm="A."
V:3 treble-8 nm="Tenor" snm="T."
V:4 bass nm="Bass" snm="B."
V:1
 c3/2 f/ | e e e e | f/c/ c f3/2 e/ | e/d/ d/c/ c/B/ B/A/ | A G G3/2 A/ | A/B/ B- B/G/ A/ B/ | %6
w: Quel- la|ce- tra~ah pur tu|se- * i che~ad- dol-|cì * gli~af- * fan- * ni *|mie- i, che d`o-|gni~al- * ma~a * * suo ta-|
 B A f3/2 d/ | c c d =B | c2 c3/2 c/ | =B B _B B | B/A/ A A/B/ c/d/ | (d c/) c/ c/f/ e/d/ | %12
w: len- to, d`o- gni|cor la via s`a-|prì. Ah! sei|tu, tu sei pur|quel- * la, che * nel *|sen * del- la * mia *|
 d/c/ c c3/2 _e/ | _e/d/ d z/ d/ d/ d/ | d/c/ c c3/2 c/ | c d/c/ c e | f2 f3/2 d/ | %17
w: bel- * la tan- te|vol- * te, io lo ram-|men- * to, la fie-|rez- za~in- * te- ne-|rì, la fie-|
 c f/d/ c/A/ B/G/ | F2 |] %19
w: rez- za~in- * te- * ne- *|rì.|
V:2
 A3/2 A/ | B B B B | A A z c/ c/ | c/B/ B/A/ A/G/ G/F/ | F E E3/2 F/ | F/G/ G- G/E/ F/ G/ | %6
w: Quel- la|ce- tra~ah pur tu|se- i che~ad- dol-|cì * gli~af- * fan- * ni *|mie- i, che d`o-|gni~al- * ma~a * * suo ta-|
 G F A3/2 F/ | E E F F | E2 E3/2 E/ | F F C C | C C F/G/ A/B/ | (B A/) A/ A/d/ c/B/ | %12
w: len- to, d`o- gni|cor la via s`a-|prì. Ah! sei|tu, tu sei pur|quel- la, che * nel *|sen * dal- la * mia *|
 B/A/ A F3/2 F/ | F F z/ F/ G/ G/ | G G G3/2 G/ | F F F G | F2 d3/2 B/ | A F F E | F2 |] %19
w: bel- * la tan- te|vol- te, io lo ram-|men- to, la fie-|rez- za~in- te- ne-|rì, la fie-|rez- za~in- te- ne-|rì.|
V:3
 c3/2 c/ | c c c c | c/f/ f z f/ f/ | f f c c | c c B3/2 A/ | A/E/ E- E/B/ A/ E/ | E F F3/2 A/ | %7
w: Quel- la|ce- tra~ah pur tu|se- * i che~ad- dol-|cì gli~af- fan- ni|mie- i, che d`o-|gni~al- * ma~a * * suo ta-|len- to, d`o- gni|
 G c =B d | c2 G3/2 G/ | G G G G | G/A/ A f f | f3/2 f/ f f | f f A3/2 c/ | c/B/ B z/ B/ B/ B/ | %14
w: cor la via s`a-|prì. Ah! sei|tu, tu sei pur|quel- * la, che nel|sen dal- la mia|bel- la tan- te|vol- * te, io lo ram-|
 B B B3/2 B/ | A B/A/ A B | A2 B/d/ d/f/ | f d/B/ A/F/ G/B/ | A2 |] %19
w: men- to, la fie-|rez- za~in- * te- ne-|rì, la * fie- *|rez- za~in- * te- * ne- *|rì.|
V:4
 F,3/2 F,/ | G, G, G, G, | F, F, z A,/ A,/ | B, F, E, F, | C, C, C,3/2 C,/ | C, C,2 C,/ C,/ | %6
w: Quel- la|ce- tra~ah pur tu|se- i che~ad- dol-|ci gli~af- fan- ni|mie- i, che d`o-|gni~al- ma~ suo ta-|
 C, F, D,3/2 F,/ | G, G, G, G, | C,2 C,3/2 C,/ | D, D, E, E, | E,/F,/ F, F, F, | F,3/2 F,/ F, F, | %12
w: len- to, d`o- gni|cor la via s`a-|prì. Ah! sei|tu, tu sei pur|quel- * la, che nel|sen dal- la mia|
 F, F, F,3/2 F,/ | B, B, z/ B,/ G,/ F,/ | E, E, E,3/2 E,/ | F, B,, C, C, | D,2 B,, B,, | %17
w: bel- la tan- te|vol- te, io lo ram-|men- to, la fie-|raz- za~in- te- ne-|rì, la fie-|
 F, B,, C, C, | F,2 |] %19
w: rez- za~in- te- ne-|rì.|

